X:1
T:The girl who broke my heart
N:usually played in G (with a hint of minor)
R:reel
M:4/4
L:1/8
K:Amix
ed|cA ~A2 FEDF|EAA^G ABcd|efge dcAG|EGGF G2 ed|
~c2 BA FD ~D2|EAA^G ABcd|efge dcAG|1EAA^G A:|
2 EAA^G AEGB||
A2 ce aecA|G2 Bd gdBG|A2 ce aece|dcde dB^GB|
A2 ce aecA|G2 BD gdBG|ABce dcAG|EAA^G A4:|
